X:26
T: ICH BIN EIN FRANZOSE MESDAMES
N: F0084
O: Europa, Mitteleuropa, Deutschland
R: Spott -, Scherz - Lied
M: 6/8
L: 1/8
K: C
C | E,G,CE,G,C | G,2CE2
E | DCB,CA,D | G,3z2
G, | FEDDCB, | C2EG,2
G, | A,FEDCD | E3
D3 | CCCB,A,B, | C3z2

